X:5
%%newpage
T:Old Grey Cat / Tam Lin
T:Old Grey Cat
R:Reel
Q:1/2=110
M:C|
K:Edor
"Em"e2e2 E3F|GFGA BABc|"D"d2d2 D3E|FAdB AFED|
"Em"e2e2 E3F|GFGA BABc|"D"dcBA BAGF|"Em"G2 E2 E4:|
|:"Em"B2 e2 e3d|Bdef gfed|"D"A2d2d3B|ABde fedf|
"Em"e2B2 "G"g2B2|"Am"a2B2 "B"b3 a|"B"gfed BABd|"Em"e4 e4:|
T:
